app/style/icons/accountInButton.svg

<svg viewBox="0 0 12.009 9.436" xmlns="http://www.w3.org/2000/svg"><path d="m25.751 67.86h10.507a.75.75 0 0 1 .751.751v7.934a.75.75 0 0 1 -.751.751h-10.507a.75.75 0 0 1 -.751-.751v-7.934a.75.75 0 0 1 .751-.751z" fill="#091440" transform="translate(-25 -67.86)"/><path d="m25.719 96.43h10.571a.719.719 0 0 1 .719.719v7.14a.719.719 0 0 1 -.719.719h-10.571a.719.719 0 0 1 -.719-.719v-7.141a.718.718 0 0 1 .719-.718z" fill="#e9f8fe" transform="translate(-25 -95.572)"/><g fill="#091440"><path d="m139.29 210.72v2.573h.858v-2.573z" transform="translate(-135.859 -206.431)"/><path d="m54.428 185.571v-2.571h1.716v-.858h-2.574v4.289h2.573v-.858h-1.715z" transform="translate(-52.712 -178.709)"/><path d="m5.147 5.144h.858v.858h-.858z"/><path d="m6.862 5.144h.858v.858h-.858z"/><path d="m8.578 5.144h.858v.858h-.858z"/><path d="m10.293 5.144h.858v.858h-.858z"/></g></svg>

<svg xmlns="http://www.w3.org/2000/svg" viewBox="0 0 12.009 9.436"><defs><style>.a{fill:#091440;}.b{fill:#e9f8fe;}</style></defs><g transform="translate(-778 -260)"><g transform="translate(778 260)"><path class="a" d="M25.751,67.86H36.258a.75.75,0,0,1,.751.751v7.934a.75.75,0,0,1-.751.751H25.751A.75.75,0,0,1,25,76.545V68.611A.75.75,0,0,1,25.751,67.86Z" transform="translate(-25 -67.86)"/><path class="b" d="M25.719,96.43H36.29a.719.719,0,0,1,.719.719v7.14a.719.719,0,0,1-.719.719H25.719a.719.719,0,0,1-.719-.719V97.148A.718.718,0,0,1,25.719,96.43Z" transform="translate(-25 -95.572)"/><g transform="translate(0.858 3.431)"><path class="a" d="M139.29,210.72v2.573h.858V210.72Z" transform="translate(-136.717 -209.862)"/><path class="a" d="M54.428,185.571V183h1.716v-.858H53.57v4.289h2.573v-.858H54.428Z" transform="translate(-53.57 -182.14)"/><rect class="a" width="0.858" height="0.858" transform="translate(4.289 1.713)"/><rect class="a" width="0.858" height="0.858" transform="translate(6.004 1.713)"/><rect class="a" width="0.858" height="0.858" transform="translate(7.72 1.713)"/><rect class="a" width="0.858" height="0.858" transform="translate(9.435 1.713)"/></g></g></g></svg>
